X:1
T:James Gibb editions
T:Meister, wir haben die ganze Nacht  - Schütz
T:#
%%score [ 1 2 ] 3
L:1/8
Q:1/4=108
M:4/4
K:C
V:1 treble-8 nm="Tenor I"
V:2 treble-8 nm="Tenor II"
V:3 bass nm="Continuo"
V:1
"^Meister, wir haben die ganze Nacht, SWV 317""^Heinrich Schütz\n(1585-1672)""^Luke 5:5" A8 | F8 | %2
w: Mei-|ster,|
 z4 z2 A2 | A2 AA A4- | A2 A2 _B4- | B4 A4 | G6 F2 | F2 c2 c2 cc | c2 c2 d4- | d4 c4 | B6 B2 | %11
w: wir|ha- ben die gan\-|* ze Nacht|* ge-|ar- beit-|tet, wir ha- ben die|gan- ze Nacht|* ge-|ar- bei-|
 A4 z2 E2 | (F>G A2) z4 | z2 A2 E4 | D4 z2 A2 | (_B>c d2) z2 ^F2 | G8 | A2 z A A2 A2- | AGGF F3 E | %19
w: tet und|nichts * *|ge- fan-|gen, und|nichts * * ge-|fan-|gen, wir ha- ben|* die gan- ze Nacht ge-|
 E3 E E2 E2 | (F>G A2) z2 A2 | (_B>c d)D (E>F G2) | z2 _B2 E4 | D8 | z2 dd d2 e2 | c4 z ccc | %26
w: ar- bei- tet und|nichts, * * und|nichts, * * un nichts * *|ge- fan-|gen,|a- ber auf dein|Wort will ich das|
 (cdcd e2) A2 | d8 | c8 | z8 | z8 | z8 | z2 cc c2 d2 | B4 z BBB | (B>c B>c d2) e2 | B8 | %36
w: Netz * * * * aus-|wer-|fen,||||a- ber auf dein|Wort will ich das|Netz * * * * aus-|wer-|
 A4 A2 _B2 | G4 G2 A2 | F8 | z DDD (FGFG | ABAB c4) | z CCC (EFEF | GAGA BcBc | %43
w: fen, auf dein|Wort, auf dein|Wort|will ich das Netz, * * *||will ich das Netz * * *||
[Q:1/4=106] d4)[Q:1/4=102] z2[Q:1/4=100] B2[Q:1/4=104][Q:1/4=101] | %44
w: * aus-|
[Q:1/4=98] e8[Q:1/4=97][Q:1/4=96][Q:1/4=93] |[Q:1/4=92] !fermata!d8 |] %46
w: wer-|fen.|
V:2
 z8 | z8 | A8 | F4 z2 F2 | F2 FF F2 F2 | G4 E2 (F2- | F2 ED) E4 | F4 z2 A2 | A2 AA A2 A2 | %9
w: ||Mei-|ster, wir|ha- ben die gan- ze|Nacht ge- ar\-|* * * bei-|tet, wir|ha- ben die gan- ze|
 B4 ^G2 (A2- | A2 ^G^F) G4 | A2 E2 (F>=G A2) | z4 z2 F2 | (^C2 D4 C2) | D4 z2 ^F2 | (G>A _B2) z4 | %16
w: Nacht ge- ar\-|* * * bei-|tet und nichts * *|ga-|fan\- * *|gen, und|nichts * *|
 z2 D2 E4 | ^F2 z =F F2 F2- | FEED D3 ^C | ^C3 C C4 | z4 z2 ^F2 | (G>A _B2) z2 B2 | (E>F D4 ^C2) | %23
w: ge- fan-|gen, wir ha- ben|* die gan- ze Nacht ge-|ar- bei- tet|und|nichts * * ge-|fan\- * * *|
 D8 | z8 | z8 | z8 | z8 | z2 GG G2 A2 | F4 z FFF | (FGFG A2) D2 | G8 | F2 AA A2 B2 | ^G4 z GGG | %34
w: gen,|||||a- ber auf dein|Wort will ich das|Netz * * * * aus-|wer-|fen, a- ber auf dein|Wort will ich das|
 (^GAGA B2) c2 | (^G2 A4 G2) | A4 ^F2 G2 | E4 E2 =F2 | D4 z DDD | (FGFG ABAB | c4) z CCC | %41
w: Netz * * * * aus-|wer\- * *|fen, auf dein|Wort, auf dein|Wort will ich das|Netz, * * * * * * *|* will ich das|
 (EFEF GAGA | BcBc d4) | z2 B2 (e>f d2- | d2 ^cB c4) | !fermata!d8 |] %46
w: Netz * * * * * * *||aus- wer\- * *||fen.|
V:3
 D,8- | D,8 | ^C,8 | D,8- | D,4 D,4 | C,4- x2 x2 | x4- x4 | F,,6 F,2 | F,4 F,4 | E,4- x2 x2 | %10
w: ||||* 6|7|4||* 6||
 x4- x4 | A,,8- | A,,4 G,,4 | x2- x4 x2 | D,4 D,4 | G,,4 D,4 | x4- x4 | D,3 F,, F,,4 | G,,8 | %19
w: 4|||||||||
 A,,8- | A,,4 D,4 | (x4- x2 x2 | x2) x2 x2- x2 | D,8 | D,6 A,,2 | A,,8 | A,,4 A,,4 | %27
w: |||4|||||
 G,,2 F,,2 G,,4 | C,6 F,,2 | _B,,4 B,,4- | B,,4 F,,2 _B,,2 | C,2 _B,,2 C,4 | F,,2 F,F, F,2 D,2 | %33
w: |||||* * * * 6|
 E,8- | E,4 B,,2 A,,2 | E,2 D,2 x2- x2 | A,,4 D,2 G,,2 | C,4 C,2 F,,2 | _B,,8 | _B,,4 F,,4- | %40
w: ||* * 4|||||
 F,,4 A,,4 | C,8 | G,,8 | B,,4 A,,2 G,,2 | x4- x4 | !fermata!D,8 |] %46
w: ||||4||

